assets/Chart decreasing/Flat/chart_decreasing_flat.svg

<svg width="32" height="32" viewBox="0 0 32 32" fill="none" xmlns="http://www.w3.org/2000/svg">
<path d="M2.90864 6.61656L2.29076 4.5C2.88415 3.03408 4.32131 2 6 2H26C28.2091 2 30 3.79086 30 6V24L29 25L29.898 26.9017C29.4891 28.6766 27.8991 30 26 30H6C3.79086 30 2 28.2091 2 26V7.12595L2.90864 6.61656Z" fill="#E1D8EC"/>
<path d="M10 11V21H2V22H10V30H11V22H21V30H22V22H30V21H22V11H30V10H22V2H21V10H11V2H10V10H2V11H10ZM11 11H21V21H11V11Z" fill="#B4ACBC"/>
<path d="M2.29679 4.48523C2.10547 4.95245 2 5.46393 2 6.00004V7.12504L15.8682 20.8382C16.7094 21.67 18.0577 21.6877 18.9204 20.8783L21.0703 18.8611C21.2665 18.6771 21.5732 18.6812 21.7643 18.8706L29.8927 26.9244C29.9095 26.853 29.9245 26.781 29.9375 26.7082L30 24L22.9379 17.2622C22.0928 16.428 20.7383 16.415 19.8773 17.2327L17.7289 19.2733C17.5321 19.4602 17.2221 19.456 17.0304 19.2638L2.29679 4.48523Z" fill="#0084CE"/>
</svg>

<svg xmlns="http://www.w3.org/2000/svg" width="32" height="32" fill="none"><path fill="#E1D8EC" d="M2.909 6.617 2.29 4.5A4.001 4.001 0 0 1 6 2h20a4 4 0 0 1 4 4v18l-1 1 .898 1.902A4.002 4.002 0 0 1 26 30H6a4 4 0 0 1-4-4V7.126l.909-.51Z"/><path fill="#B4ACBC" d="M10 11v10H2v1h8v8h1v-8h10v8h1v-8h8v-1h-8V11h8v-1h-8V2h-1v8H11V2h-1v8H2v1h8Zm1 0h10v10H11V11Z"/><path fill="#0084CE" d="M2.297 4.485A3.988 3.988 0 0 0 2 6v1.125l13.868 13.713a2.2 2.2 0 0 0 3.052.04l2.15-2.017a.5.5 0 0 1 .694.01l8.129 8.053c.017-.071.031-.143.044-.216L30 24l-7.062-6.738a2.2 2.2 0 0 0-3.06-.03l-2.15 2.041a.5.5 0 0 1-.698-.01L2.297 4.486Z"/></svg>
